X: 22425
T: Ladies' 2nd Choice
R: barndance
M: 4/4
K: Amajor
E2CE A,ECE|FDAF EFAB|cAeA fAeA|d2cd BGED|
C2B,C A,B,CD|EFAB cAEA|defd caec|1 B2AB cBAF:|2 B2AB cAA2||
f2fe dfa2|dcdf bagf|e2^de cea2|EAAB cde^e|
~f3e dfa2|dcdf aga^a|bge2 ^deBA|1 GBeB cBA2:|2 GBeB cBAF||

